X:112
T:Hob-y Dylif - The Porpoise
M:6/8
L:1/8
Q:100
C:Trad. arr. J.T.
S:Davidsons Musical Miracles 1859
R:Jig
N:Very slight compression of second measure
K:D
F/G/ | AFB AFD | DED FED | D>ED FED | FAA A2 :||: (3A/B/c/ |
d2 d dBd | c2 c cdc | B2 B Bcd | FB^A B3 | =AGF Bc d|
cBd cBA | dAB A2 G | FAG F2 E | D>ED FED | F/G/AA A2 :||
